X: 50
T:Minuett. TBe.050
M:4/4
L:1/4
Q:80
S:Thomas Bennet MS,1718, VWML
R:minuet
O:England
N:Are minuets usually in 4/4  1 - I know the beats don't add up - it's
N:up the the user to decide which one to lose.
H:Before 1718
Z:vmp.C. Graebe..
K:E minor
B | e2f2 | g f/e/^d B | c/B/A/G/ F/G/F/E/ ||! 
"1"d | B2d2 | g f/e/ ^dB | ^c2e2 | a (f/e/) dB |\
 e/d/e/f/ B/e/ ^d/f/ | e3 ||
